X:1
T:Surge propera amica mea
T:Surge, propera amica mea
T:Johannes de Pinarol 1502 ed. P. Wing
T:Arise, make haste, my love, my dove, my beautiful one, and come. in the clefts of the rock, in the hollow places of the wall, shew me thy face, let thy voice sound in my ears: for thy voice is sweet, and thy face comely.      Songs 2:10, 14
T:© 2018 by CPDL. This edition can be fully distributed, duplicated, performed, and recorded.
T:© 2018 by CPDL. This edition can be fully distributed, duplicated, performed, and recorded.
T:© 2018 by CPDL. This edition can be fully distributed, duplicated, performed, and recorded.
C:Johannes de Pinarol 1502
Z:Traditional
Z:© 2018 by CPDL. This edition can be fully distributed, duplicated, performed, and recorded.
%%score [ 1 2 3 4 ]
L:1/8
M:2/2
K:C
V:1 treble nm="Soprano" snm="S."
V:2 treble nm="Alto" snm="A."
V:3 treble-8 nm="Tenor" snm="T."
V:4 bass nm="Bass" snm="B."
V:1
 z8 | G8 | c8 | c8 | A6 A2 | A8 | d8 | d4 d4 | B8 | B8 | z4 e4- | e2 d2 d4- | d4 ^c4 | d8 | z8 | %15
w: |Sur-||ge|pró- per-|a|á-|mi- ca|me-|a|me-|||a,||
 z8 | z8 | z8 | z8 | z8 | z8 | z8 | z8 | B8 | B4 B4 | c8 | B6 AB | c2 B4 AG | ^F2 G4 F2 | G4 A4- | %30
w: ||||||||Co-|lúm- ba|me-||||a, me-|
 A2 G2 G4- | G4 ^F4 | G8 | z4 B4 | B2 B2 c2 c2 | B6 AG | A4 d4- | d2 cB c4 | B4 z4 | e4 d4- | %40
w: ||a,|in|fo- ra- mí- ni-|bus * *|* pet-||re,|in ca-|
 d2 cB c4 | B2 AG F2 G2- | G2 F2 G4 | B6 AG | A2 B4 A2 | B3 d c4 | B2 d4 ^c2 | d8 | z4 B4 | c4 B4 | %50
w: * * * vér-||* * na|ma- * *|cé- * *||* * ri-|ae|os-|tén- de|
 A4 G4 | c4 B4 | A4 d4 | c2 B4 A2- | A2 ^G2 A2 c2- | c2 BA G2 A2 | B4 A4 | G2 c4 B2 | c8 | z8 | %60
w: mi- hi|fá- ci-|em tu-||||||am,||
 z8 | z8 | z8 | z8 | z8 | z8 | z8 | z8 | z8 | z8 | z8 | d8 | d4 d4 | c8 | d8 | B8 | c6 B2 | %77
w: |||||||||||vox|e- nim|tu-|a|dul-||
 A4 B4- | B2 G2 G4- | G4 ^F4 | G8 | z4 G4 | d4 e4 | d8 | d4 e4 | d2 cB c4 | B6 AG | A4 B4 | %88
w: |||cis|et|fá- ci-|es|tu- *||a * *||
 A2 B2 A2 B2- | B2 AG A2 B2- | BA d4 ^c2 | d2 B4 AG | A2 G4 ^F2 | G4 A4- | A2 G2 G4 | !fermata!F8 | %96
w: * * * de-|* * * có- *|||||||
 G8 |] %97
w: ra.|
V:2
 z8 | z8 | z8 | C8 | F8 | F8 | F6 F2 | D8 | G8 | G4 G4 | G8 | E4 A4- | A2 G2 A4 | ^F8 | z4 G4- | %15
w: |||Sur-||ge|pró- per-|a|á-|mi- ca|me-|||a,|spe-|
 G2 G2 E4 | C4 F4- | F2 D4 CD | E2 D4 ^C2 | D4 F4- | F2 ED E2 D2 | F4 E4 | D2 G4 ^F2 | G8 | %24
w: * ci- ó-|sa me-|||a, et||ve- *||ni.|
 G4 G2 G2 | E6 F2 | G8 | G4 z2 D2- | D2 ^C2 D4 | E4 F4- | F2 E2 D2 C2 | D8 | B,8 | z4 G4 | %34
w: Co- lúm- ba|me- *||a, me-|||||a,|in|
 G2 G2 F2 F2 | G4 D3 E | F4 D4 | z8 | G8 | G4 G4 | G8 | D3 E F2 E2 | D8 | D4 D4- | D2 B,2 C4 | %45
w: fo- ra- mí- ni-|bus pet- *|* re,||in|ca- vér-|na|ma- * * *||cé- ri-||
 B,2 D4 C2 | D4 A4- | A8 | z8 | z8 | z8 | z8 | z8 | z8 | z8 | z8 | z8 | z8 | G6 F2 | E4 D4 | %60
w: |* ae,||||||||||||so- net|vox *|
 E2 G4 F2 | G4 z2 D2 | E2 DC D4 | C4 F4 | E2 E2 D4 | z2 G2 F2 E2- | E2 D4 ^C2 | D4 E4 | %68
w: tu- * *|a *||* in|aú- ri- bus|me- * *||is, *|
 D2 E2 F2 G2- | G2 F2 G2 A2- | A2 G4 ^F2 | G8 | A4 A4 | A8 | F8 | G8 | E8 | F4 z2 D2 | E2 D4 ^C2 | %79
w: ||||vox e-|nim|tu-|a|dul-|cis *||
 D8 | B,8 | E8 | F4 E2 G2- | G2 FE D2 C2- | C2 B,2 C4 | G,2 G4 ^F2 | G4 z2 G2- | G2 F2 G4 | %88
w: |et|fá-||* * * ci- *|* * es|tu- * *|a de-|* * có-|
 F2 G2 F2 G2- | G2 B2 A2 G2- | G2 A6 | ^F4 z2 E2 | F2 E2 D4 | C2 E2 F2 D2- | D2 CB, C4 | %95
w: |||||||
 !fermata!D8 | D8 |] %97
w: |ra.|
V:3
 G8 | c8 | c8 | A6 A2 | A8 | d8 | d4 d4 | B8 | B8 | z4 e4- | e4 d2 c2 | g4 f4 | e8 | d8 | z8 | z8 | %16
w: Sur-||ge|pró- per-|a|á-|mi- ca|me-|a|me-||||a,|||
 z8 | z8 | z8 | z8 | z8 | z8 | z8 | d8 | d4 d4 | c8 | d6 cd | e2 d4 cB | A2 G2 A4 | G4 c4- | %30
w: |||||||Co-|lúm- ba|me-||||a, me-|
 c4 B4 | A8 | G8- | G8 | z8 | B4 B2 B2 | c2 c2 B4- | B2 AG A4 | d6 cB | c4 B4 | z4 e4 | d2 d4 cB | %42
w: |a,||||in fo- ra-|mí- ni- bus||pet- * *|* re,|in|ca- ver- * *|
 A4 G4 | z2 g4 fe | f2 g2 e2 f2 | d2 g4 f2 | g2 d2 e4 | d8- | d8 | z4 B4 | c4 B4 | A4 G4 | c4 B4 | %53
w: * na|ma- * *|cé- * * *||* * ri-|ae,||os-|tén- de|mi- hi|fá- ci-|
 A2 d4 c2 | B4 A4 | z2 c4 BA | G2 g4 f2 | g2 e2 d4 | c8 | z8 | z8 | z8 | z8 | z8 | z8 | z8 | z8 | %67
w: em * *||tu- * *|||am,|||||||||
 z8 | z8 | z8 | z8 | d8 | f4 f4 | e8 | d8 | d8 | c8 | z4 d4 | G8 | A8 | G6 A2 | B2 c2 B2 c2- | %82
w: ||||vox|e- nim-|tu-|a|dul-|cis|et|fá-||ci- *|* * * es|
 c2 B2 c4 | d6 e2 | f4 e2 dc | B2 d4 c2 | d8- | d8- | d8- | d8 | d4 e4 | d6 cB | c2 B2 A4 | G4 F4 | %94
w: * * tu-|||a de- *|có-||||||||
 G8 | !fermata!A8 | G8 |] %97
w: ||ra.|
V:4
 z8 | z8 | C,8 | F,8 | F,8 | D,6 D,2 | D,8 | G,8 | G,4 G,4 | E,8- | E,8 | C,4 D,4 | A,8 | D,8 | %14
w: ||Sur-||ge|pró- per-|a|á-|mi- ca|me-||||a,|
 G,6 G,2 | E,4 C,4 | F,8 | D,4 G,4- | G,2 F,2 E,4 | D,4 z2 D2- | D2 CB, C2 B,2 | A,2 D4 ^C2 | %22
w: spe- ci-|ó- sa|me-|||a, et||ve- * *|
 D2 B,2 A,4 | G,8 | G,4 G,2 G,2 | A,8 | G,4 G,F,E,D, | C,2 G,3 F, G,2 | D,2 E,2 D,4 | G,4 F,4- | %30
w: |ni.|Co- lúm- ba|me-||||a, *|
 F,4 G,4 | D,8 | D4 D2 D2 | E2 E2 D2 B,2- | B,2 A,G, A,4 | G,8 | F,4 G,4 | z2 G,4 F,2 | G,8 | %39
w: ||in fo- ra-|mí- ni- bus *||||pet- *||
 C,4 G,4- | G,4 C,4 | G,2 F,E, D,2 G,2 | D,4 G,4- | G,8 | D,2 G,4 F,2 | G,2 B,2 A,4 | G,2 B,2 A,4 | %47
w: |* re,|in * * * ca-|ver- na||ma- cé- *|* * ri-||
 D,8 | z8 | z8 | z8 | z8 | z8 | z8 | z8 | z8 | z8 | z8 | z8 | G,6 F,2 | E,4 D,4 | E,2 G,4 F,2 | %62
w: ae,||||||||||||so- net|vox *|tu- * *|
 G,4 z2 D,2 | E,2 D,C, D,4 | C,4 F,4 | E,2 E,2 D,2 G,2- | G,2 F,2 E,4 | D,2 G,4 A,2 | %68
w: a *||* in|aú- ri- bus *||me- * *|
 B,2 C2 D2 CB, | C2 D2 G,2 C2- | C2 B,2 A,4 | G,8 | D,4 D,4 | A,8 | _B,8 | G,8 | A,6 G,2 | %77
w: |* * * is,|||vox e-|nim|tu-|a|dul- cis|
 F,4 G,4- | G,2 F,2 E,4 | D,8 | E,8- | E,8 | D,4 C,4 | G,6 E,2 | D,4 C,4 | G,4 A,4 | G,6 F,E, | %87
w: et fá-|* * ci-|es||||tu- *|* a|de- *|có- * *|
 D,4 G,4 | D,2 G,2 D,2 G,2- | G,2 F,E, F,2 G,2- | G,2 D,2 A,4 | D,4 G,4 | F,2 G,2 D,4 | E,4 D,4 | %94
w: |||||||
 E,8 | !fermata!D,8 | G,8 |] %97
w: ||ra.|

